X: 113
M: C|
L: 1/8
K: G
uc "Segno" |\
(v.B>.G)(.d>.G) (.c>.=F) "0"A2 | (.B>.G)(.d>.G) "SEGUE"B>cd>g |
(u.B>.A) |\
(v.G>.g)(.d>.g) "SEGUE"=f>=F A2 | G>gd>g G>gd>g | G>gd>g =f>=F A2 |
=f>ef>d c>=FA>a | g>dg>b g>d"4"e>c "Segno"[|]"_D.S."[|]|]


